X:356
T: MIT HOERNERSCHALL UND LUSTGESANG
N: F0625
O: Europa, Mitteleuropa, Deutschland
R: Staende -, Jaeger - Lied; Soldaten - Lied
M: 6/8
L: 1/8
K: Eb
B | e2ee2B | G2GG2
G | BAGBAG | F4z
G | F2GA2F | G2AB2
G | F2GA2F | G2AB2
E | E2GG2B | e3
c3 | BcBAGF | E4z

